!!!COM: Bach, Johann Sebastian
!!!CDT: 1685///-1750///
!!!CNT@EN: German
!!!OPR@DE: Musikalisches, BWV 1007
!!!OPR@EN: Musical Offering, BWV 1007
!!!OMD: Allegro
!!!OMV: No. 15
!!!ODT: 1747///
!!!SCT: BWV 1079
!!!SCA: Thematisch-systematisches Verzeichnis der musikalischen Werke Johann Sebastian Bach: Bach-Werke-Verzeichnis (Schmieder)
**kern	**kern	**kern
*staff3	*staff2	*staff1
*Icemba	*Ivioln	*Iflt_a
*clefF4	*clefG2	*clefG2
*k[b-e-a-]	*k[b-e-a-]	*k[b-e-a-]
*M6/8	*M6/8	*M6/8
*MM144	*MM144	*MM144
=1-	=1-	=1-
8c'\L	2.r	4r
8G'\	.	.
8E-'\J	.	8r
[4.C/	.	8r
.	.	(8cc\L
.	.	8dd\J
=2	=2	=2
8C/L]	2.r	8ee-\L
8D/	.	8ff\
8E-/J	.	8gg\J
[4.F\	.	8aa-\L)
.	.	8ff'\
.	.	8dd'\J
=3	=3	=3
8F\L]	2.r	(4cc\
8G\	.	.
8F\J	.	8bn\)
(8E-\L	.	8r
8D\	.	8r
8C\J)	.	8gg\
=4	=4	=4
8D'\L	2.r	(4gg\
8An'\	.	.
(8c\J	.	8ff#\)
8Bn\L	.	8r
8A\	.	8r
8G\J)	.	8ffn\
=5	=5	=5
8C'\L	2.r	(4ff\
8G'\	.	.
(8B-\J	.	8een\)
8An\L	.	([4.ee-\
8G\	.	.
8F\J)	.	.
=6	=6	=6
4BB-/	2.r	8ee-\L]
.	.	8dd\
8E-\	.	[8dd-\J
4AA-/	.	8dd-\L]
.	.	8cc\
8A-\	.	[8bn\J
=7	=7	=7
4D\	2.r	8bn\L]
.	.	8an\)
8F\	.	8g'\J
4E-\	.	4cc\
8D\	.	8ff\
=8	=8	=8
4C/	2.r	8ee-'\L
.	.	(8aa-\
8E-\	.	8gg\J
4F\	.	8ff\L
.	.	8ee-\
8G\	.	8dd\J)
=9	=9	=9
4C/	4r	8cc'\L
.	.	(8ee-\
8D\	8r	8dd\J
4E-\	8r	8cc\L
.	(8g/L	8b-\
8FF#/	8an/J	8an\J)
=10	=10	=10
8GG/L	8b-\L	8g\L
8AAn/	8cc\	(8ff#\
8BB-/J	8dd\J	8gg\J)
4.C/	8ee-\L)	8r
.	8cc'\	8r
.	8an'\J	[8ee-\
=11	=11	=11
4D\	(4g/	16ee-\LL]
.	.	16dd'\
.	.	16cc'\
.	.	16b-'\
8DD/	8f#/)	16an'\
.	.	16g'\JJ
4.D\	8r	16f#/LL
.	.	16en/J
.	8r	8d/J
.	8dd\	[8bb-\
=12	=12	=12
4.En\	(4dd\	8bb-\L]
.	.	8gg'\
.	8cc#\)	8een'\J
4.F#\	8r	(16an/LL
.	.	16b-/J
.	8r	8cc/J)
.	8ccn\	[8aan\
=13	=13	=13
4G\	(4cc\	8aan\L]
.	.	8ff#'\
8Fn\	8bn\)	8gg'\J
4E-\	([4.b-/	8g\L
.	.	(8gg\
8D\	.	8ffn\J)
=14	=14	=14
4C/	8b-/L]	4.een\
.	8an/	.
8CC/	[8a-/J	.
[4.C/	8a-/L]	4.ee-\
.	8g/	.
.	[8f#/J	.
=15	=15	=15
4C/]	8f#/L]	[4.dd\
.	8en/)	.
8c\	8d/J	.
4B-\	4g/	8dd\L]
.	.	8een\
8An\	8cc\	8ff#\J
=16	=16	=16
4G\	8b-'\L	4gg\
.	(8ee-\	.
8B-\	8dd\J	8b-\
4d\	8cc\L	4an/
.	8b-\	.
8D\	8an\J)	8ff#\
=17	=17	=17
8G'\L	4g/	4.gg\
8D'\	.	.
8BB-'\J	8d/	.
4GG/	[4.b-\	8r
.	.	8bb-'\L
8BB-/	.	8gg'\J
=18	=18	=18
4.C/	4b-\]	8een'\L
.	.	8cc'\
.	8dd-\	[8b-\J
8r	8g'\L	(8b-/L]
8r	(8ff\	8a-/
8C/	8een\J)	8g/J)
=19	=19	=19
8F\L	4.ff\	4f/
8C\	.	.
8AA-\J	.	8cc\
4FF/	8r	[4.aa-\
.	8aa-'\L	.
8AA-/	8ff'\J	.
=20	=20	=20
4.BB-/	8ddn'\L	4aa-\]
.	8b-'\	.
.	[8a-\J	8ccc\
8r	(8a-/L]	8ff\L
8r	8g/	(8eee-\
8BB-/	8f/J)	8ddd\J)
=21	=21	=21
8E-/L	4g/	[4.eee-\
8BB-/	.	.
8GG/J	8b-\	.
4EE-/	[4.gg\	8eee-\L]
.	.	(16ee-\L
.	.	16dd\
8GG/	.	16cc\
.	.	16bn\JJ)
=22	=22	=22
4AA-/	8gg\L]	[4.cc\
.	8ee-'\	.
8r	8cc'\J	.
4DD/	[4.ff\	8cc/L]
.	.	8a-'/
8r	.	8f'/J
=23	=23	=23
4GG/	8ff\L]	8d/L
.	(16gg\L	(8cc/
.	16ff\	.
8r	16ee-\	8b-/J)
.	16dd\JJ)	.
8CC/L	16ee-\LL	([4.cc\
.	16dd\	.
(8C/	16ee-\	.
.	16ff\	.
8D/J	16gg\	.
.	16ee-\JJ	.
=24	=24	=24
8E-\L	[4.cc\	8cc\L]
8F\	.	8dd\
8G\J	.	8ee-\J)
8A-\L)	8cc\L]	[4.ff\
8F'\	(16dd\L	.
.	16cc\	.
8D'\J	16bn\	.
.	16cc\JJ)	.
=25	=25	=25
(4C/	[4.dd\	16ff\LL]
.	.	16ee-\
.	.	16ff\
.	.	16gg\
8BBn/)	.	16aa-\
.	.	16ff\JJ
8r	16dd\LL]	16bn\LL
.	16cc\	16an\
8r	16dd\	16b\
.	16ee-\	16cc\
8G\	16ff\	16dd\
.	16dd\JJ	16b\JJ
=26	=26	=26
(4G\	8ee-'\L	[4.cc\
.	8cc'\	.
8F#\)	8an'\J	.
8r	(16d/LL	8cc\L]
.	16e-/J	.
8r	8f/J)	(16dd\L
.	.	16cc\
8Fn\	[8dd\	16bn\
.	.	16an\JJ)
=27	=27	=27
(4F\	8dd\L]	8bn\L
.	8bn'\	8gg'\
8En\)	8g'\J	[8b-\J
([4.E-\	8c'/L	(8b-/L]
.	(8cc/	8an/
.	8b-/J)	8g/J)
=28	=28	=28
8E-\L]	4.an/	8f\L
8D\	.	(8ff\
[8D-\J	.	8een\J)
8D-/L]	4.a-/	[4.ff\
8C/	.	.
[8BBn/J	.	.
=29	=29	=29
8BB/L]	[4.g/	8ff\L]
8AAn/)	.	(16gg\L
.	.	16ff\
8GG/J	.	16ee-\
.	.	16dd\JJ)
4C/	8g/L]	8ee-'\L
.	8an/	8cc'\
8F\	8bn/J	8dd'\J
=30	=30	=30
4E-\	4cc\	8g'\L
.	.	8ee-'\
8A-\	8e-/	8cc'\J
4F\	4d/	(8a-/L
.	.	8g/
8G\	8bn\	8f/J)
=31	=31	=31
4C/	8cc\L	(8e-/L
.	8dd\	8f/
8BB-/	[8ee-\J	8g/J)
4AA-/	8ee-\L]	8f'\L
.	(16dd\L	8ff'\
.	16cc\	.
8BB-/	16b-\	8dd'\J
.	16a-\JJ)	.
=32	=32	=32
4E-\	(8g/L	(8ee-\L
.	8an/	8ff#\
8D\	8b-/J)	[8gg\J)
4C/	8a\L	8gg\L]
.	8aan'\	(16ff#\L
.	.	16een\
8D\	8ff#'\J	16dd\
.	.	16cc\JJ)
=33	=33	=33
4G\	(8gg\L	(8b-\L
.	8aan\	8cc\
8F\	[8bb-\J)	8dd\J)
4E-\	8bb-\L]	8cc\
.	(16aan\L	[4ccc\
.	16gg\	.
8F\	16ffn\	.
.	16ee-\JJ)	.
=34	=34	=34
(16BB-/LL	8dd\	8ccc\L]
16AAn/	.	.
16GG/	[4gg\	(16bb-\L
16FF/	.	16aan\
16EE-/	.	16gg\
16DD/JJ)	.	16ff\JJ)
(16C/LL	8gg\L]	8ee-\
16BB-/	.	.
16AA-/	(16ff\L	[4aa-\
16GG/	16ee-\	.
16FF/	16dd\	.
16EE-/JJ)	16cc\JJ)	.
=35	=35	=35
(16D/LL	[4.b-\	8aa-\L]
16C/	.	.
16BB-/	.	(16gg\L
16AA-/	.	16ff\
16GG/	.	16ee-\
16FF/JJ)	.	16dd\JJ)
(16E-/LL	8b-/L]	[4.cc\
16D/	.	.
16C/	(16a-/L	.
16BB-/	16g/	.
16AA-/	16f/	.
16GG/JJ)	16e-/JJ)	.
=36	=36	=36
(16F/LL	8d'/L	8cc/L]
16E-/	.	.
16D/	8f'/	(16b-/L
16C/	.	16a-/
16BB-/	(8b-/J	16g/
16AA-/JJ)	.	16f/JJ)
(16G\LL	8a-/L)	[4.e-/
16F\	.	.
16E-\	8g'/	.
16D\	.	.
16C\	8e-'/J	.
16BB-\JJ)	.	.
=37	=37	=37
8A-\L	(8c/L	8e-/L]
8F\	8d/	16a-/L
.	.	16f/J
8c\J	8.e-/J)	8.g/J
8A-\L	.	.
.	16f/	16a-/
8B-\	8.d/L	8.f/L
8BB-\J	.	.
.	16e-/Jk	16e-/Jk
=38	=38	=38
8E-/L	[4.e-/	[4.e-/
(16BB-/L	.	.
16AA-/	.	.
16GG/	.	.
16FF/JJ)	.	.
4EE-/	8e-/]	4e-/]
.	(8gg\L	.
8r	8ff\J	8r
=39	=39	=39
8r	8ee-\L	8r
8r	8dd\	(8ff\L
8F#\	8cc\J)	8ee-\J
4G\	(16bn\LL	8dd\L
.	16cc\	.
.	16dd\	8cc\
.	16ee-\J	.
8GG/	[8ff\J	8bn\J)
=40	=40	=40
4C/	8ff\L]	8cc\L
.	8een\J)	(8ccc\
8r	8r	8bb-\J
8r	8r	8aa-\L
8r	(8b-/L	8gg\
8Bn\	8a-/J	8ff\J)
=41	=41	=41
4c\	8g/L	(16een\LL
.	.	16ff\
.	8f/	16gg\
.	.	16aa-\J
8C/	8en/J)	[8bb-\J
4F\	8f\L	8bb-\L]
.	(8ff\	8aa-\J)
8r	8ee-\J	8r
=42	=42	=42
8r	8dd-\L	8r
8r	8cc\	(8ee-\L
8En\	8b-\J)	8dd-\J
4F\	(16an\LL	8cc\L
.	16b-\	.
.	16cc\	8b-\
.	16dd-\J	.
8FF/	[8ee-\J	8an\J)
=43	=43	=43
4BB-/	8ee-\L]	8b-\L
.	8ddn\J)	(8bb-\
8r	8r	8aa-\J
8r	8r	8gg-\L
8r	(8aa-\L	8ff\
8An\	8gg-\J	8ee-\J)
=44	=44	=44
4B-\	8ff\L	(16dd\LL
.	.	16ee-\
.	8ee-\	16ff\
.	.	16gg-\J
8BB-/	8dd\J)	[8aa-\J
[4.E-\	8ee-/L	8aa-\L]
.	(8e-/	8ggn\J)
.	8f/J	8r
=45	=45	=45
8E-\L]	8g/L	4r
8F\	8a-/	.
8G\J	8b-/J)	8r
[4.A-\	8cc'/L	8r
.	8a-'/	8r
.	8f'/J	[8ccc\
=46	=46	=46
8A-\L]	(4e-/	16ccc\LL]
.	.	16bb-'\
8F\	.	16aa-'\
.	.	16gg'\
[8B-\J	8d/)	16ff'\
.	.	16ee-'\JJ
(16B-\LL]	8r	16dd\LL
16A-\	.	16cc\J
16G\	8r	8b-\
16F\	.	.
16E-\	8b-\	[8gg\J
16D\JJ)	.	.
=47	=47	=47
4.C/	(4b-/	8gg\L]
.	.	8ee-'\
.	8an/)	8cc'\J
4.D\	8r	(16f/LL
.	.	16g/J)
.	8r	8a-/J
.	8a-/	[8ff\
=48	=48	=48
4E-\	(4a-/	8ff\L]
.	.	(8dd\
8D-\	8g/)	8ee-\J)
4C/	([4.g-/	8e-/L
.	.	(8ee-/
8BB-/	.	8dd-/J)
=49	=49	=49
8AAn\L	8g-/L]	4.cc\
8An\	8f/	.
8G\J	[8f-/J	.
[4.A-\	8f-/L]	4.cc-\
.	8e-/	.
.	[8dn/J	.
=50	=50	=50
4A-\]	8d/L]	[4.b-\
.	8c/	.
8AA-/	8A-/J)	.
4GG/	4e-/	8b-\L]
.	.	8ccn\
8FF/	8a-/	8dd\J
=51	=51	=51
4EE-/	8g/L	4ee-\
.	(8cc/	.
8GG/	8b-/J	8g/
4AA-/	8a-/L	4f/
.	8g/	.
8BB-/	8f/J)	8dd\
=52	=52	=52
4C/	8e-\L	4ee-\
.	(8ee-\	.
8GG/	8dd-\J	8r
4AA-/	8cc\L	4r
.	8b-\	.
8BB-/	8a-\J)	8r
=53	=53	=53
4EE-/	8g'\L	4r
.	(8gg\	.
8FF/	8ff\J	8r
4GG/	8ee-\L	8r
.	8ddn\	(8b-\L
8AAn/	8cc\J)	8cc\J
=54	=54	=54
8BB-/L	8b-'\L	8dd\L
8C/	(8aan\	8ee-\
8D/J	8bb-\J)	8ff\J
[4.E-\	8r	8gg\L)
.	8r	8ee-'\
.	[8gg\	8cc'\J
=55	=55	=55
8E-\L]	16gg\LL]	(4b-/
.	16ff\	.
8C\	16ee-\	.
.	16dd\	.
[8F\J	16cc\	8an/)
.	16b-\JJ	.
(16F/LL]	16an/LL	8r
16E-/	16g/J	.
16D/	8f/J	8r
16C/	.	.
16BB-/	[8ddd\	8ff\
16AA-/JJ)	.	.
=56	=56	=56
4.GG/	8ddd\L]	(4ff\
.	8bb-'\	.
.	8gg'\J	8een\)
4.AAn/	(16cc\LL	8r
.	16dd\J	.
.	8ee-\J)	8r
.	[8ccc\	8ee-\
=57	=57	=57
4BB-/	8ccc\L]	(4ee-\
.	(8aan\	.
8AA-/	8bb-\J)	8dd\)
4GG/	8b-'\L	([4.dd-\
.	(8bb-\	.
8FF/	8aa-\J)	.
=58	=58	=58
8EEn/L	4.gg\	8dd-\L]
(8En/	.	8cc\
8D/J)	.	[8cc-\J
[4.E-\	4.gg-\	8cc-\L]
.	.	8b-\
.	.	[8an\J
=59	=59	=59
8E-/L]	[4.ff\	8a/L]
(8BB-/	.	8g/
8AAn/J)	.	8f/J)
(8D\L	8ff\L]	4b-\
8E-\	(8ggn\	.
8F\J	8aan\J)	8ee-\
=60	=60	=60
8G\L)	4bb-\	8dd\L
8An'\	.	(8gg\
8B-'\J	8dd\	8ff\J
4E-\	4cc\	8ee-\L
.	.	8dd\
8F\	8aan\	8cc\J)
=61	=61	=61
4.BB-/	8bb-'\L	4b-\
.	8ff'\	.
.	8dd'\J	8r
4r	(16b-\LL	8r
.	16cc\	.
.	16dd\	8r
.	16ee-\	.
8r	16ff\	[8b-/
.	16gg\JJ)	.
=62	=62	=62
8r	[2.aa-\	(16b-/LL]
.	.	16f/
8BB-/L	.	16d/
.	.	16f/
8D/J	.	16b-/
.	.	16cc/JJ)
8F\L	.	(16dd\LL
.	.	16b-\
8D\	.	16f\
.	.	16b-\
8F\J	.	16dd\
.	.	16ee-\JJ)
=63	=63	=63
8B-\L	8aa-\L]	8ff'\L
8BB-\	(16bb-\L	8dd'\
.	16aa-\	.
8D\J	16gg\	8b-'\J
.	16ff\JJ)	.
4.E-\	8gg\L	(16e-/LL
.	.	16f/
.	8b-\	16g/
.	.	16a-/
.	[8e-\J	16b-/
.	.	16cc/JJ)
=64	=64	=64
8r	(16e-/LL]	[2.dd-\
.	16B-/	.
8E-\L	16G/	.
.	16B-/	.
8G\J	16e-/	.
.	(16f/JJ)	.
8B-\L	16g/LL	.
.	16e-/	.
8G\	16B-/	.
.	16e-/	.
8B-\J	16g/	.
.	16a-/JJ)	.
=65	=65	=65
8e-\L	8b-/L	8dd-\L]
8E-\	8g/	(16ee-\L
.	.	16dd-\
8G\J	8e-/J	16cc\
.	.	16b-\JJ)
8A-\L	4A-/	[4.cc\
8B-\	.	.
8c\J	8aa-\	.
=66	=66	=66
.	ggq/	.
(8Dn\L	[4.ff\	8cc/L]
8En\	.	(16b-/L
.	.	16a-/
8F\J	.	16g/
.	.	16f/JJ)
8G\L)	8ff\L]	[4.b-/
8A-'\	(16ee-\L	.
.	16dd-\	.
8B-'\J	16cc\	.
.	16b-\JJ)	.
=67	=67	=67
(8C\L	(8een\L	(16b-/LL]
.	.	16dd-/
8D\	8ff\	16cc/
.	.	16b-/
8En\J	8gg\J)	16a-/
.	.	16g/JJ)
8F\L)	[4.cc\	(16a-/LL
.	.	16cc/
8G'\	.	16b-/
.	.	16a-/
8A-'\J	.	16g/
.	.	16f/JJ)
=68	=68	=68
4BB-/	8cc\L]	4dd-\
.	8b-\	.
8C/	[8a-\J	8cc\
4.D-\	8a-/L]	(8cc\L
.	8g/	8bn\
.	8f/J	8cc\J)
=69	=69	=69
4C/	(8f/L	[2.cc\
.	8en/	.
8r	8f/J	.
8r	8g/L	.
(8FF/L	8a-/	.
8GG/J	8b-/J)	.
=70	=70	=70
8AA-/L	4.cc\	8cc\L]
8BB-/	.	(8ddn\
8C/J	.	8een\J)
8D-/L)	8r	8ff\L
8BB-'/	8r	(16gg\L
.	.	16ff\
8GG'/J	[8b-\	16ee\
.	.	16ff\JJ)
=71	=71	=71
(4FF/	16b-\LL]	[4.gg\
.	16a-\	.
.	16b-\	.
.	16cc\	.
8EEn/)	16dd-\	.
.	16b-\JJ	.
8r	16en/LL	16gg\LL]
.	16dn/	16ff\
8r	16e/	16gg\
.	16f/	16aa-\
8C/	16g/	16bb-\
.	16e/JJ	16gg\JJ
=72	=72	=72
(4C/	[4.f/	8aa-'\L
.	.	8ff'\
8BBn/)	.	8dd'\J
8r	8f/L]	(16g/LL
.	.	16a-/J)
8r	16g/L	8b-/J
.	16f/	.
8BB-/	16en/	[8gg\
.	16d/JJ	.
=73	=73	=73
(4BB-/	8en/L	8gg\L]
.	8cc'/	8een'\
8AAn/)	[8e-/J	8cc'\J
[4.AA-/	(8e-/L]	8f\L
.	8d/	(8ff\
.	8c/J)	8ee-\J)
=74	=74	=74
8AA-/L]	8B-'/L	4.ddn\
8GG/	(8b-/	.
[8GG-/J	8a-/J)	.
8GG-/L]	[4.b-/	4.dd-\
8FF/	.	.
[8EEn/J	.	.
=75	=75	=75
8EE/L]	8b-/L]	[4.cc\
8DD/	(16cc/L	.
.	16b-/	.
8CC/J	16a-/	.
.	16g/JJ)	.
4FF/	8a-'/L	8cc\L]
.	8f'/	8ddn\
8BB-/	8g'/J	8een\J
=76	=76	=76
4AA-/	8c/L	4ff\
.	8a-'/	.
8D-\	8f'/J	8a-/
4BB-/	(8d-/L	4g/
.	8c/	.
8C/	8B-/J)	8een\
=77	=77	=77
.	(B-q/	.
4.FF/	4A-/)	8ff'\L
.	.	8cc'\
.	8r	8a-'\J
4r	8r	(16f/LL
.	.	16g/
.	8r	16a-/
.	.	16b-/
8r	[8f/	16cc/
.	.	16dd/JJ)
=78	=78	=78
8r	(16f/LL]	[2.ee-\
.	16c/	.
8FF/L	16An/	.
.	16c/	.
8AAn/J	16f/	.
.	16g/JJ	.
8C/L	16an/LL	.
.	16f/	.
8AA/	16c/	.
.	16f/	.
8C/J	16a/	.
.	16b-/JJ	.
=79	=79	=79
8F/L	8cc/L)	8ee-\L]
8FF/	8an'/	(16ff\L
.	.	16ee-\
8AAn/J	8f'/J	16dd\
.	.	16cc\JJ)
4BB-/	(16B-/LL	8dd\L
.	16c/	.
.	16d/	8bb-\
.	16e-/	.
8r	16f/	[8b-\J
.	16g/JJ)	.
=80	=80	=80
8r	[2.a-/	(16b-/LL]
.	.	16f/
8BB-/L	.	16d/
.	.	16f/
8D/J	.	16b-/
.	.	16cc/JJ)
8F\L	.	(16dd/LL
.	.	16b-/
8D\	.	16f/
.	.	16b-/
8F\J	.	16dd/
.	.	16ee-/JJ)
=81	=81	=81
8B-\L	8a-/L]	8ff'\L
8BB-\	(16b-/L	8dd'\
.	16a-/	.
8D\J	16g/	8b-'\J
.	16f/JJ)	.
8E-\L	16g\LL	4e-/
.	(16gg\	.
16A-\L	16ff\	.
16G\	16ee-\	.
16F\	16dd\	8r
16E-\JJ	16cc\JJ)	.
=82	=82	=82
8D\L	(16bn/LL	[2.aa-\
.	16f/	.
8F\	16d/	.
.	16f/	.
8D\J	16b/	.
.	16cc/JJ)	.
8BBn/L	(16dd\LL	.
.	16b\	.
8D/	16f\	.
.	16b\	.
8BB/J	16dd\	.
.	16ee-\JJ)	.
=83	=83	=83
4GG/	(16ff\LL	8aa-\]
.	16aa-\	.
.	16gg\	4bn\
.	16ff\	.
8G\	16ee-\)	.
.	16dd'\JJ	.
8C/L	16ee-\LL	16cc\LL
.	16cc\	16g\
8E-/	(16g\	16cc\
.	16bn\	16dd\J
8C/J	16cc\	8ee-\J
.	16dd\JJ)	.
=84	=84	=84
8AA-/L	16ee-\LL	[4.f/
.	(16gg\	.
8FF/	16ff\	.
.	16ee-\	.
8AA-/J	16dd\	.
.	16cc\JJ)	.
8BB-/L	16dd/LL	8f/L]
.	16b-/	.
8D/	(16f/	16b-/L
.	16an/	16cc/J
8BB-/J	16b-/	8dd-/J
.	16cc/JJ)	.
=85	=85	=85
8GG/L	16dd-\LL	4e-/
.	(16ff\	.
8EE-/	16ee-\	.
.	16dd-\	.
8GG/J	16cc\	8r
.	16b-\JJ)	.
8AA-/L	[4.cc\	16r
.	.	(16ddn\LL
8GG/	.	16een\
.	.	16ff\
8FF/J	.	16gg\
.	.	16aa-\JJ)
=86	=86	=86
8EEn/L	2.cc\_	16bb-'\LL
.	.	(16ddd-\
8CC/	.	16ccc\
.	.	16bb-\
8EE/J	.	16aa-\
.	.	16gg\JJ)
4FF/	.	16aa-\LL
.	.	16ff\
.	.	(16cc\
.	.	16een\
8r	.	16ff\
.	.	16gg\JJ)
=87	=87	=87
8r	2.cc\_	16aa-\LL
.	.	(16ccc\
8F\L	.	16bb-\
.	.	16aa-\
8A-\J	.	16gg\
.	.	16ff\JJ)
4c\	.	16gg\LL
.	.	16ee-\
.	.	(16cc\
.	.	16dd\
8r	.	16ee-\
.	.	16ff\JJ)
=88	=88	=88
8r	4.cc\_	16gg'\LL
.	.	(16bb-\
8F\L	.	16aa-\
.	.	16gg\
(8C\J	.	16ff\
.	.	16ee-\JJ)
8D\L	16cc\LL]	[4.ff\
.	(16ee-\	.
8E-\	16dd\	.
.	16cc\	.
8F\J	16bn\	.
.	16an\JJ)	.
=89	=89	=89
8G\L	(8bn\L	16ff\LL]
.	.	(16aa-\
8An\	8cc\	16gg\
.	.	16ff\
8Bn\J)	8dd\J)	16ee-\
.	.	16dd\JJ)
[4.c\	16g\LL	8ee-'\L
.	(16ff\	.
.	16ee-\	(8cc\
.	16dd\	.
.	16cc\	8dd\J
.	16b\JJ)	.
=90	=90	=90
16c\LL]	[4.cc\	8ee-\L
(16d\	.	.
16c\	.	8ff\
16B-\	.	.
16A-\	.	8gg\J
16G\JJ)	.	.
4.F\	16cc\LL]	8aa-\L)
.	(16bb-\	.
.	16aa-\	8ff'\
.	16gg\	.
.	16ff\	8dd'\J
.	16ee-\JJ)	.
=91	=91	=91
8G/L	16dd\LL	(4cc\
.	(16aa-\	.
8GG/	16gg\	.
.	16ff\	.
8G/J	16ee-\	8bn\)
.	16dd\JJ)	.
8C\L	16ee-'\LL	8r
.	(16ff\	.
(8B-\	16ee-\	8r
.	16dd\	.
8An\J)	16cc\	8gg\
.	16b-\JJ)	.
=92	=92	=92
8d\L	(16an\LL	(4gg\
.	16g\	.
8D\	16a\	.
.	16bn\	.
8An\J	16cc\	8ff#\)
.	16b\JJ)	.
8D\L	16cc'\LL	8r
.	(16ee-\	.
(8A-\	16dd\	8r
.	16cc\	.
8G\J)	16bn\	8ffn\
.	16an\JJ)	.
=93	=93	=93
8c\L	(16g/LL	(4ff\
.	16f/	.
8C\	16g/	.
.	16an/	.
8G\J	16b-/	8een\)
.	16a/JJ)	.
8C\L	(16b-/LL	([4.ee-\
.	16dd-/	.
8D\	16cc/	.
.	16b-/	.
8E-\J	16a-/	.
.	16g/JJ)	.
=94	=94	=94
4AA-/	(16f/LL	8ee-\L]
.	16en/	.
.	16f/	8dd\
.	16g/	.
8EEn/	16a-/	[8dd-\J
.	16g/JJ)	.
4FF/	(16a-/LL	8dd-\L]
.	16b-/	.
.	16a-/	8cc\
.	16g/	.
8DD'/	16f/	[8bn\J
.	16e-/JJ)	.
=95	=95	=95
16GG/LL	4d/	8b/L]
(16A-/	.	.
16G/	.	8an/
16F/	.	.
16E-/	8r	8g/J)
16D/JJ)	.	.
(16E-/LL	8r	4cc\
16F/	.	.
16E-/	(8cc\L	.
16D/	.	.
16C/	8dd\J	8ff\
16BBn/JJ)	.	.
=96	=96	=96
(16C/LL	8ee-\L	(8ee-\L
16BBn/	.	.
16C/	8ff\	8aa-\
16D/	.	.
16E-/	8gg\J	8gg\J)
16D/JJ)	.	.
16E-\LL	8aa-\L)	[4.ff\
16C\	.	.
16D\	8ff'\	.
16E-\	.	.
16F\	8dd'\J	.
16D\JJ	.	.
=97	=97	=97
4G\	(4cc\	16ff\LL]
.	.	(16aa-\
.	.	16gg\
.	.	16ff\
8GG/	8bn\)	16ee-\
.	.	16dd\JJ)
8C\L	8r	(16ee-\LL
.	.	16ff\
(8B-\	8r	16ee-\
.	.	16dd\
8An\J)	8gg\	16cc\
.	.	16b-\JJ)
=98	=98	=98
8D\L	(4gg\	(16an\LL
.	.	16g\
8d\	.	16a\
.	.	16bn\
8An\J	8ff#\)	16cc\
.	.	16b\JJ)
8D\L	8r	(16cc\LL
.	.	16ee-\
(8A-\	8r	16dd\
.	.	16cc\
8G\J)	8ffn\	16bn\
.	.	16an\JJ)
=99	=99	=99
8C\L	(4ff\	(16g/LL
.	.	16f/
8c\	.	16g/
.	.	16an/
8G\J	8een\)	16b-/
.	.	16a/JJ)
8C\L	([4.ee-\	(16b-/LL
.	.	16dd-/
8D\	.	16cc/
.	.	16b-/
8E-\J	.	16a-/
.	.	16g/JJ)
=100	=100	=100
4AA-/	8ee-\L]	(16f/LL
.	.	16en/
.	8dd\	16f/
.	.	16g/
8EEn/	[8dd-\J	16a-/
.	.	16g/JJ)
4FF/	8dd-\L]	(16a-/LL
.	.	16b-/
.	8cc\	16a-/
.	.	16g/
8D\	[8bn\J	16f/
.	.	16e-/JJ)
=101	=101	=101
(16G\LL	8bn/L]	4d/
16A-\	.	.
16G\	8an/	.
16F\	.	.
16E-\	8g/J)	8r
16D\JJ)	.	.
(16E-/LL	4cc\	8r
16F/	.	.
16E-/	.	4a-/
16D/	.	.
16C/	8ff\	.
16BB-/JJ)	.	.
=102	=102	=102
[4.C/	8ee-\L	8g'\L
.	(8aa-\	(8ff\
.	8gg\J	8ee-\J)
8C\L]	8ff\L	8dd'\L
8c\	8ee-\	(8aa-\
8B-\J	8dd\J)	[8gg\J)
=103	=103	=103
8An\L	(16cc\LL	8gg\L]
.	16bn\	.
8e-\	16cc\	8ff#\
.	16dd\	.
8c\J	16ee-\	[8aan\J
.	16cc\JJ)	.
8F#\L	(16dd\LL	8aa\L]
.	16cc\	.
8D\	16dd\	8ccc\
.	16ee-\	.
8G\J	16ffn\)	8bbn\J
.	16dd'\JJ	.
=104	=104	=104
8.C\L	16ee-'\LL	8ccc\L
.	(16aa-\	.
.	16gg\	(16bbn\L
16D\L	16ff\	16aan\
16E-\	16ee-\	16gg\
16F\JJ	16dd\JJ)	16ffn\JJ)
4G\	(8cc\L	(8ee-\L
.	8bn\)	8ff\
8GG/	[8gg\J	8dd\J)
=105	=105	=105
8AAn/L	8gg\L]	16cc\LL
.	.	16bn\
8E-/	8ff#\	16cc\
.	.	16dd\
8C/J	[8aan\J	16ee-\
.	.	16cc\JJ
8FF#/L	8aa\L]	16dd\LL
.	.	16cc\
8DD/	8ccc\	16dd\
.	.	16ee-\
8GG/J	8bbn\J	16ffn\
.	.	16dd\JJ
=106	=106	=106
8.CC/L	8ccc\L	16ee-\LL
.	.	(16aa-\
.	(16bbn\L	16gg\
16CC'/L	16aan\	16ff\
16EE-/	16gg\	16ee-\
16FF/JJ	16ffn\JJ)	16dd\JJ)
8GG/L	8ee-'\L	8cc'\L
8FF/	8ff'\	8dd'\
8GG/J	8dd'\J	8bn'\J
=107	=107	=107
4AA-/	(8cc\L	4cc\
.	8dd\	.
8AAn/	[8ee-\J)	8r
8BB-/L	8ee-\L]	8r
8BBn/	(16dd\L	8r
.	16cc\	.
8GG/J	16bn\	8dd\
.	16an\JJ)	.
=108	=108	=108
4C/	(16g/LL	(8ee-\L
.	16f/	.
.	16e-/	8ff\
.	16d/	.
8EEn/	16c/	[8gg\J)
.	16B-/JJ)	.
4FF/	8A-/	8gg\L]
.	[4aa-\	(16ff\L
.	.	16ee-\
8FF#/	.	16dd\
.	.	16cc\JJ)
=109	=109	=109
16GG/LL	8aa-\L]	(16bn\LL
(16Fn/	.	16cc\J)
16E-/	(16gg\L	8dd\
16D/	16ff\	.
16C/	16ee-\	[8ee-\J
16BB-/JJ)	16dd\JJ)	.
16AAn/LL	8cc\L	8ee-\L]
(16G/	.	.
16F/	(16dd\L	(16dd\L
16E-/	16ee-\J	16cc\
16D/	[8ff\J)	16bn\)
16C/JJ)	.	&(16an\JJ&)
=110	=110	=110
16BBn\LL	8ff\L]	[4.g/
(16A-\	.	.
16G\	(16ee-\L	.
16F\	16dd\	.
16E-\	16cc\)	.
16D\JJ)	16b-\JJ	.
16C\LL	[4.a-/	8g/L]
(16B-\	.	.
16A-\	.	8f/
16G\	.	.
16F\	.	8a-/J
16E-\JJ)	.	.
=111	=111	=111
16D\LL	8a-/L]	8bn'\L
(16c\	.	.
16Bn\	(16g/L	8dd'\
16An\	16f/	.
16G\	16e-/	[8ff\J
16F\JJ)	16d/JJ)	.
16E-\LL	[4.c/	8ff\L]
(16d\	.	.
16c\	.	(16ee-\L
16B-\	.	16dd\
16A-\	.	16ee-\
16G\JJ)	.	16cc\JJ)
=112	=112	=112
16F\LL	8c/L]	8aa-\L
(16A-\	.	.
16G\	16f/L	8bn\
16F\	16d/J	.
16E-\	8.e-/J	8.cc\J
16D\JJ)	.	.
16C\LL	.	.
16F\J	16f/	16dd\
8G\	8.d/L	8.bn\L
8GG\J	.	.
.	16c/Jk	16cc\Jk
=113	=113	=113
[4.CC/	[4.c/	[4.cc\
4CC/]	4c/]	4cc\]
8r	8r	8r
==	==	==
*-	*-	*-
!!!ENC: Craig Stuart Sapp
!!!END: 2005/05/16/
